goods.client/src/assets/icons/services/report.svg

<svg width="50" height="50" viewBox="0 0 50 50" fill="none" xmlns="http://www.w3.org/2000/svg">
<g id="report-svgrepo-com 1">
<path id="Vector" d="M41.6666 16.6667L29.1666 4.16669H12.5C11.3949 4.16669 10.3351 4.60567 9.5537 5.38708C8.7723 6.16848 8.33331 7.22828 8.33331 8.33335V41.6667C8.33331 42.7718 8.7723 43.8316 9.5537 44.613C10.3351 45.3944 11.3949 45.8334 12.5 45.8334H37.5C38.605 45.8334 39.6649 45.3944 40.4463 44.613C41.2277 43.8316 41.6666 42.7718 41.6666 41.6667V16.6667ZM18.75 39.5834H14.5833V20.8334H18.75V39.5834ZM27.0833 39.5834H22.9166V27.0834H27.0833V39.5834ZM35.4166 39.5834H31.25V33.3334H35.4166V39.5834ZM29.1666 18.75H27.0833V8.33335L37.5 18.75H29.1666Z" fill="white"/>
</g>
</svg>

<svg xmlns="http://www.w3.org/2000/svg" width="50" height="50" fill="none"><path fill="#fff" d="m41.667 16.667-12.5-12.5H12.5a4.167 4.167 0 0 0-4.167 4.166v33.334a4.167 4.167 0 0 0 4.167 4.166h25a4.167 4.167 0 0 0 4.167-4.166zM18.75 39.583h-4.167v-18.75h4.167zm8.333 0h-4.166v-12.5h4.166zm8.334 0H31.25v-6.25h4.167zm-6.25-20.833h-2.084V8.333L37.5 18.75z"/></svg>
